images/button-secondary.svg

<svg height="60" viewBox="0 0 150 60" width="150" xmlns="http://www.w3.org/2000/svg"><g fill="none"><path d="m7.82941654 0h134.34116646c4.323019 0 7.829417 3.53281421 7.829417 7.88979866v43.43092954c0 4.3569845-3.506398 7.8897981-7.829417 7.8897981h-134.34116646c-4.32301891 0-7.82941654-3.5328136-7.82941654-7.8897981v-43.43092954c0-4.35698445 3.50639763-7.88979866 7.82941654-7.88979866z" fill="#0057a8"/><g fill="#fff" transform="translate(19.05 20.968)"><path d="m11.2942913 7.22383307c0 2.34749303-.6366885 4.14399633-1.90083658 5.38950993-1.26876259 1.2501435-3.09578031 1.8705859-5.48105315 1.8705859h-3.91240157v-14.26090258h4.33686024c2.20072559 0 3.91240156.62044246 5.13041339 1.85206527 1.21801177 1.22236309 1.82701767 2.94015393 1.82701767 5.14874148zm-1.75319879.05556195c0-1.8613262-.4613681-3.26426475-1.38410431-4.20418818-.92273623-.93529237-2.29761379-1.40756961-4.11540356-1.40756961h-2.39911417v11.39020147h2.01156496c1.9562008 0 3.4233508-.4861669 4.41067914-1.4631316.98271377-.9723337 1.47637794-2.41231472 1.47637794-4.31531208zm17.16488289.05478347c0 2.28730121-.5720964 4.08380331-1.7162893 5.38951001-1.1441929 1.3103364-2.7312992 1.9631891-4.7613189 1.9631891-2.0946107 0-3.7047862-.6389631-4.8351378-1.9261478-1.134965-1.282555-1.6978347-3.09757891-1.6978347-5.44507196 0-2.31971146.5628697-4.11621478 1.6978347-5.38950995 1.1441929-1.28255491 2.7589807-1.92614789 4.8535925-1.92614789 2.0300197 0 3.6078992.65748377 4.7428642 1.96318919 1.1441929 1.29644569 1.7162893 3.08831915 1.7162893 5.3709893zm-11.2573818 0c0 1.94003868.4060039 3.40780011 1.2180118 4.40791531.8120078.9908556 1.9977236 1.4816523 3.5617618 1.4816523 1.5594248 0 2.7405271-.4907967 3.5433071-1.4816523.7981665-1.0001152 1.199557-2.46787663 1.199557-4.40791531 0-1.9122571-.4013905-3.36149907-1.199557-4.3523534-.80278-1.00011525-1.9746556-1.50017287-3.5248524-1.50017287-1.5778795 0-2.7682087.50005762-3.5802165 1.50017287-.8120079 1.00011525-1.2180118 2.45398709-1.2180118 4.3523534zm26.7513391 7.14975041h-1.6240158l-2.8604823-9.53813612c-.1384098-.43060489-.2906622-.96770383-.4613681-1.61129681-.1614791-.63896192-.2491393-1.02326575-.2583661-1.14828046-.138411.85195004-.3598677 1.79187344-.6643701 2.81513922l-2.7682087 9.48257417h-1.6240157l-3.7647638-14.26090258h1.7347441l2.2330217 8.81583071c.3183437 1.23625387.5444137 2.35212287.6828248 3.35223817.1707059-1.1853218.429072-2.3521229.7750984-3.50040338l2.5282972-8.6676655h1.7531989l2.6574803 8.76026875c.3045023 1.00011525.5628685 2.13913483.7750984 3.40780013.1199551-.9260327.3552531-2.0465327.7012795-3.37075881l2.2145669-8.79731007h1.7531989zm17.0379999 0h-1.8823819l-7.7325296-11.96434164h-.0738189c.1107284 1.40756961.1660926 2.69938544.1660926 3.87081644v8.0935252h-1.5317422v-14.26090258h1.8639272l7.6956201 11.92730038h.0922736c-.0138413-.1852065-.0461362-.7500859-.0922736-1.7039-.0507508-.94918321-.0692055-1.62981749-.0553642-2.03727186v-8.18612852h1.5501969z"/><path d="m63.111 14.485v-14.262h1.642v12.76h6.238v1.502z"/><path d="m85.6579491 7.33417849c0 2.28730121-.5720964 4.08380331-1.7162894 5.38951001-1.1441928 1.3103364-2.7312991 1.9631891-4.7613188 1.9631891-2.0946107 0-3.7047862-.6389631-4.8351378-1.9261478-1.134965-1.282555-1.6978347-3.09757891-1.6978347-5.44507196 0-2.31971146.5628697-4.11621478 1.6978347-5.38950995 1.1441929-1.28255491 2.7589807-1.92614789 4.8535925-1.92614789 2.0300197 0 3.6078992.65748377 4.7428641 1.96318919 1.144193 1.29644569 1.7162894 3.08831915 1.7162894 5.3709893zm-11.2573819 0c0 1.94003868.406004 3.40780011 1.2180119 4.40791531.8120078.9908556 1.9977236 1.4816523 3.5617618 1.4816523 1.5594248 0 2.7405271-.4907967 3.543307-1.4816523.7981666-1.0001152 1.1995571-2.46787663 1.1995571-4.40791531 0-1.9122571-.4013905-3.36149907-1.1995571-4.3523534-.8027799-1.00011525-1.9746555-1.50017287-3.5248523-1.50017287-1.5778795 0-2.7682087.50005762-3.5802165 1.50017287-.8120079 1.00011525-1.2180119 2.45398709-1.2180119 4.3523534zm23.3001192 7.14807561-1.7716536-4.53755996h-5.6656004l-1.734744 4.53755996h-1.6609252l5.5917815-14.31646463h1.3841043l5.554872 14.31646463zm-2.2699311-6.01921218-1.6424705-4.42643601c-.2214567-.55561958-.4429134-1.24088375-.6643701-2.05579246-.1476378.62970219-.3506397 1.31496634-.6090059 2.05579246l-1.6609252 4.42643601zm17.1984047-1.23920885c0 2.34749303-.636689 4.14399633-1.900837 5.38950993-1.268762 1.2501435-3.09578 1.8705859-5.481053 1.8705859h-3.912402v-14.26090258h4.336861c2.200725 0 3.912401.62044246 5.130413 1.85206527 1.218012 1.22236309 1.827018 2.94015393 1.827018 5.14874148zm-1.753199.05556195c0-1.8613262-.461368-3.26426475-1.384104-4.20418818-.922737-.93529237-2.297614-1.40756961-4.115404-1.40756961h-2.399114v11.39020147h2.011565c1.956201 0 3.423351-.4861669 4.410679-1.4631316.982714-.9723337 1.476378-2.41231472 1.476378-4.31531208z"/></g></g></svg>

<svg xmlns="http://www.w3.org/2000/svg" width="150" height="60" viewBox="0 0 150 60">
  <g fill="none">
    <path fill="#0057A8" d="M7.82941654,0 L142.170583,0 C146.493602,0 150,3.53281421 150,7.88979866 L150,51.3207282 C150,55.6777127 146.493602,59.2105263 142.170583,59.2105263 L7.82941654,59.2105263 C3.50639763,59.2105263 0,55.6777127 0,51.3207282 L0,7.88979866 C0,3.53281421 3.50639763,0 7.82941654,0 Z"/>
    <g fill="#FFF" transform="translate(19.05 20.968)">
      <path d="M11.2942913,7.22383307 C11.2942913,9.5713261 10.6576028,11.3678294 9.39345472,12.613343 C8.12469213,13.8634865 6.29767441,14.4839289 3.91240157,14.4839289 L0,14.4839289 L0,0.223026316 L4.33686024,0.223026316 C6.53758583,0.223026316 8.2492618,0.843468776 9.46727363,2.07509159 C10.6852854,3.29745468 11.2942913,5.01524552 11.2942913,7.22383307 Z M9.54109251,7.27939502 C9.54109251,5.41806882 9.07972441,4.01513027 8.1569882,3.07520684 C7.23425197,2.13991447 5.85937441,1.66763723 4.04158464,1.66763723 L1.64247047,1.66763723 L1.64247047,13.0578387 L3.65403543,13.0578387 C5.61023623,13.0578387 7.07738623,12.5716718 8.06471457,11.5947071 C9.04742834,10.6223734 9.54109251,9.18239238 9.54109251,7.27939502 Z M26.7059754,7.33417849 C26.7059754,9.6214797 26.133879,11.4179818 24.9896861,12.7236885 C23.8454932,14.0340249 22.2583869,14.6868776 20.2283672,14.6868776 C18.1337565,14.6868776 16.523581,14.0479145 15.3932294,12.7607298 C14.2582644,11.4781748 13.6953947,9.66315089 13.6953947,7.31565784 C13.6953947,4.99594638 14.2582644,3.19944306 15.3932294,1.92614789 C16.5374223,0.64359298 18.1522101,0 20.2468219,0 C22.2768416,0 23.8547211,0.657483766 24.9896861,1.96318919 C26.133879,3.25963488 26.7059754,5.05150834 26.7059754,7.33417849 Z M15.4485936,7.33417849 C15.4485936,9.27421717 15.8545975,10.7419786 16.6666054,11.7420938 C17.4786132,12.7329494 18.664329,13.2237461 20.2283672,13.2237461 C21.787792,13.2237461 22.9688943,12.7329494 23.7716743,11.7420938 C24.5698408,10.7419786 24.9712313,9.27421717 24.9712313,7.33417849 C24.9712313,5.42192139 24.5698408,3.97267942 23.7716743,2.98182509 C22.9688943,1.98170984 21.7970187,1.48165222 20.2468219,1.48165222 C18.6689424,1.48165222 17.4786132,1.98170984 16.6666054,2.98182509 C15.8545975,3.98194034 15.4485936,5.43581218 15.4485936,7.33417849 Z M42.1999327,14.4839289 L40.5759169,14.4839289 L37.7154346,4.94579278 C37.5770248,4.51518789 37.4247724,3.97808895 37.2540665,3.33449597 C37.0925874,2.69553405 37.0049272,2.31123022 36.9957004,2.18621551 C36.8572894,3.03816555 36.6358327,3.97808895 36.3313303,5.00135473 L33.5631216,14.4839289 L31.9391059,14.4839289 L28.1743421,0.223026316 L29.9090862,0.223026316 L32.1421079,9.03885703 C32.4604516,10.2751109 32.6865216,11.3909799 32.8249327,12.3910952 C32.9956386,11.2057734 33.2540047,10.0389723 33.6000311,8.89069182 L36.1283283,0.223026316 L37.8815272,0.223026316 L40.5390075,8.98329507 C40.8435098,9.98341032 41.101876,11.1224299 41.3141059,12.3910952 C41.434061,11.4650625 41.669359,10.3445625 42.0153854,9.02033639 L44.2299523,0.223026316 L45.9831512,0.223026316 L42.1999327,14.4839289 Z M59.2379326,14.4839289 L57.3555507,14.4839289 L49.6230211,2.51958726 L49.5492022,2.51958726 C49.6599306,3.92715687 49.7152948,5.2189727 49.7152948,6.3904037 L49.7152948,14.4839289 L48.1835526,14.4839289 L48.1835526,0.223026316 L50.0474798,0.223026316 L57.7430999,12.1503267 L57.8353735,12.1503267 C57.8215322,11.9651202 57.7892373,11.4002408 57.7430999,10.4464267 C57.6923491,9.49724349 57.6738944,8.81660921 57.6877357,8.40915484 L57.6877357,0.223026316 L59.2379326,0.223026316 L59.2379326,14.4839289 Z"/>
      <polygon points="63.111 14.485 63.111 .223 64.753 .223 64.753 12.983 70.991 12.983 70.991 14.485"/>
      <path d="M85.6579491,7.33417849 C85.6579491,9.6214797 85.0858527,11.4179818 83.9416597,12.7236885 C82.7974669,14.0340249 81.2103606,14.6868776 79.1803409,14.6868776 C77.0857302,14.6868776 75.4755547,14.0479145 74.3452031,12.7607298 C73.2102381,11.4781748 72.6473684,9.66315089 72.6473684,7.31565784 C72.6473684,4.99594638 73.2102381,3.19944306 74.3452031,1.92614789 C75.489396,0.64359298 77.1041838,0 79.1987956,0 C81.2288153,0 82.8066948,0.657483766 83.9416597,1.96318919 C85.0858527,3.25963488 85.6579491,5.05150834 85.6579491,7.33417849 Z M74.4005672,7.33417849 C74.4005672,9.27421717 74.8065712,10.7419786 75.6185791,11.7420938 C76.4305869,12.7329494 77.6163027,13.2237461 79.1803409,13.2237461 C80.7397657,13.2237461 81.920868,12.7329494 82.7236479,11.7420938 C83.5218145,10.7419786 83.923205,9.27421717 83.923205,7.33417849 C83.923205,5.42192139 83.5218145,3.97267942 82.7236479,2.98182509 C81.920868,1.98170984 80.7489924,1.48165222 79.1987956,1.48165222 C77.6209161,1.48165222 76.4305869,1.98170984 75.6185791,2.98182509 C74.8065712,3.98194034 74.4005672,5.43581218 74.4005672,7.33417849 Z M97.7006864,14.4822541 L95.9290328,9.94469414 L90.2634324,9.94469414 L88.5286884,14.4822541 L86.8677632,14.4822541 L92.4595447,0.165789474 L93.843649,0.165789474 L99.398521,14.4822541 L97.7006864,14.4822541 Z M95.4307553,8.46304192 L93.7882848,4.03660591 C93.5668281,3.48098633 93.3453714,2.79572216 93.1239147,1.98081345 C92.9762769,2.61051564 92.773275,3.29577979 92.5149088,4.03660591 L90.8539836,8.46304192 L95.4307553,8.46304192 Z M112.62916,7.22383307 C112.62916,9.5713261 111.992471,11.3678294 110.728323,12.613343 C109.459561,13.8634865 107.632543,14.4839289 105.24727,14.4839289 L101.334868,14.4839289 L101.334868,0.223026316 L105.671729,0.223026316 C107.872454,0.223026316 109.58413,0.843468776 110.802142,2.07509159 C112.020154,3.29745468 112.62916,5.01524552 112.62916,7.22383307 Z M110.875961,7.27939502 C110.875961,5.41806882 110.414593,4.01513027 109.491857,3.07520684 C108.56912,2.13991447 107.194243,1.66763723 105.376453,1.66763723 L102.977339,1.66763723 L102.977339,13.0578387 L104.988904,13.0578387 C106.945105,13.0578387 108.412255,12.5716718 109.399583,11.5947071 C110.382297,10.6223734 110.875961,9.18239238 110.875961,7.27939502 Z"/>
    </g>
  </g>
</svg>
